COLOR/action 16/16/help-contents.svg

<svg height="16.000032" width="16.000044" xmlns="http://www.w3.org/2000/svg"><g stroke-width="1.066664"><circle cx="8" cy="8.000053" fill="#1a7fd4" r="7.99998"/><path d="m8.2564054 2.6712725.00111.00111c-.4952625.0000469-.9637537.0567359-1.4054511.1698433-.4010081.1049844-.7562442.248381-1.0844034.4141405l.3351992.92721c.6391614-.3244422 1.294766-.5020418 1.9658904-.5020418.5642447 0 1.0118251.1491442 1.3199841.4568481.3040724.2932054.4580914.6845275.4580914 1.1483909 0 .2892054-.06769.5598878-.201957.806361-.120122.2395809-.2774506.4677527-.4717028.6836045-.1902519.2113963-.3907683.4227308-.6019554.6339303l-.0008124.0008123-.00246.0008246c-.2058101.1955195-.4012927.4118759-.5871138.649303l-.0008123.0008123-.0003815.0008246c-.1827688.2233594-.3347069.4668542-.4567373.7309643-.1086768.2575747-.1644058.5457587-.1644058.8682808 0 .1934519.0224.3748918.052553.5519978h1.0101023c-.0008247-.02166-.00615-.04098-.00615-.06351v-.1733747c0-.3600483.071507-.6873213.2155686-.9763421.1400374-.29083.3128247-.5554079.5178458-.7931673l.0008122-.0008123c.000394-.0003938.000394-.0008.0008247-.00246.2023341-.2447393.4259517-.4783756.6702587-.7014028.237784-.2171317.454645-.4445524.650669-.6818563.193919-.2347194.356603-.4844665.489131-.7492043v-.0003815c.128541-.2671132.193932-.5696478.193932-.9123793 0-.2712362-.04493-.5543001-.13664-.8494994l-.000812-.00246-.000393-.00246c-.079386-.2977623-.227053-.5647032-.447065-.8047271-.217944-.2377471-.512737-.4335251-.88924-.5861647l-.0025-.0008123-.0025-.0008123c-.3581129-.1591996-.8316257-.2424855-1.4194027-.2425225zm-.2506947 9.2578475c-.3018331 0-.5218202.09218-.6898691.278866-.1725533.191729-.25531.407777-.25531.666866 0 .259076.082831.475544.25531.667273.1680489.186706.388036.278312.6898691.278312.3018577 0 .5222263-.09169.6902628-.278312.1725411-.191729.2553224-.408197.2553224-.667273 0-.259089-.082707-.475137-.2553224-.666866-.1680365-.186719-.3884051-.278866-.6902628-.278866z" fill="#fff"/><path d="m8 .00003837a7.9999797 7.9999797 0 0 0 -7.99997973 7.99997973 7.9999797 7.9999797 0 0 0 .01041663.3062493 7.9999797 7.9999797 0 0 1 7.9895631-7.77289705 7.9999797 7.9999797 0 0 1 7.989563 7.69373045 7.9999797 7.9999797 0 0 0 .010417-.2270827 7.9999797 7.9999797 0 0 0 -7.99998-7.99997973z" fill="#fff" opacity=".3"/><path d="m8.0000203 16.000032a7.9999797 7.9999797 0 0 0 7.9999797-7.999979 7.9999797 7.9999797 0 0 0 -.010453-.3062499 7.9999797 7.9999797 0 0 1 -7.989563 7.7728969 7.9999797 7.9999797 0 0 1 -7.98956269-7.6937302 7.9999797 7.9999797 0 0 0 -.01042131.2270832 7.9999797 7.9999797 0 0 0 7.9999797 7.999979z" opacity=".2"/></g></svg>

<?xml version="1.0" encoding="UTF-8" standalone="no"?>
<svg
   xmlns:dc="http://purl.org/dc/elements/1.1/"
   xmlns:cc="http://creativecommons.org/ns#"
   xmlns:rdf="http://www.w3.org/1999/02/22-rdf-syntax-ns#"
   xmlns:svg="http://www.w3.org/2000/svg"
   xmlns="http://www.w3.org/2000/svg"
   xmlns:sodipodi="http://sodipodi.sourceforge.net/DTD/sodipodi-0.dtd"
   xmlns:inkscape="http://www.inkscape.org/namespaces/inkscape"
   height="16.000032"
   width="16.000044"
   version="1.1"
   id="svg10"
   sodipodi:docname="help-contents.svg"
   inkscape:version="0.92.4 (5da689c313, 2019-01-14)">
  <metadata
     id="metadata16">
    <rdf:RDF>
      <cc:Work
         rdf:about="">
        <dc:format>image/svg+xml</dc:format>
        <dc:type
           rdf:resource="http://purl.org/dc/dcmitype/StillImage" />
      </cc:Work>
    </rdf:RDF>
  </metadata>
  <defs
     id="defs14" />
  <sodipodi:namedview
     pagecolor="#ffffff"
     bordercolor="#666666"
     borderopacity="1"
     objecttolerance="10"
     gridtolerance="10"
     guidetolerance="10"
     inkscape:pageopacity="0"
     inkscape:pageshadow="2"
     inkscape:window-width="798"
     inkscape:window-height="480"
     id="namedview12"
     showgrid="false"
     inkscape:zoom="14.74997"
     inkscape:cx="8.0000219"
     inkscape:cy="8.0000162"
     inkscape:window-x="0"
     inkscape:window-y="27"
     inkscape:window-maximized="0"
     inkscape:current-layer="svg10" />
  <circle
     cx="8"
     cy="8.0000525"
     r="7.9999795"
     id="circle2"
     style="fill:#1a7fd4;stroke-width:1.06666398" />
  <path
     d="m 8.2564054,2.6712725 0.00111,0.00111 C 7.7622529,2.6724294 7.2937617,2.7291184 6.8520643,2.8422258 6.4510562,2.9472102 6.0958201,3.0906068 5.7676609,3.2563663 l 0.3351992,0.92721 c 0.6391614,-0.3244422 1.294766,-0.5020418 1.9658904,-0.5020418 0.5642447,0 1.0118251,0.1491442 1.3199841,0.4568481 0.3040724,0.2932054 0.4580914,0.6845275 0.4580914,1.1483909 0,0.2892054 -0.06769,0.5598878 -0.201957,0.806361 C 9.524747,6.3327154 9.3674184,6.5608872 9.1731662,6.776739 8.9829143,6.9881353 8.7823979,7.1994698 8.5712108,7.4106693 l -8.124e-4,8.123e-4 -0.00246,8.246e-4 C 8.3621283,7.6078257 8.1666457,7.8241821 7.9808246,8.0616092 l -8.123e-4,8.123e-4 -3.815e-4,8.246e-4 C 7.796862,8.2866055 7.6449239,8.5301003 7.5228935,8.7942104 7.4142167,9.0517851 7.3584877,9.3399691 7.3584877,9.6624912 c 0,0.1934519 0.0224,0.3748918 0.052553,0.5519978 H 8.421143 c -8.247e-4,-0.02166 -0.00615,-0.04098 -0.00615,-0.06351 V 9.9776043 C 8.414993,9.617556 8.4865,9.290283 8.6305616,9.0012622 8.770599,8.7104322 8.9433863,8.4458543 9.1484074,8.2080949 l 8.122e-4,-8.123e-4 c 3.94e-4,-3.938e-4 3.94e-4,-8e-4 8.247e-4,-0.00246 C 9.3523784,7.9600833 9.575996,7.726447 9.820303,7.5034198 10.058087,7.2862881 10.274948,7.0588674 10.470972,6.8215635 10.664891,6.5868441 10.827575,6.337097 10.960103,6.0723592 v -3.815e-4 c 0.128541,-0.2671132 0.193932,-0.5696478 0.193932,-0.9123793 0,-0.2712362 -0.04493,-0.5543001 -0.13664,-0.8494994 l -8.12e-4,-0.00246 -3.93e-4,-0.00246 C 10.936804,4.0074167 10.789137,3.7404758 10.569125,3.5004519 10.351181,3.2627048 10.056388,3.0669268 9.679885,2.9142872 l -0.0025,-8.123e-4 -0.0025,-8.123e-4 C 9.3167721,2.753463 8.8432593,2.6701771 8.2554823,2.6701401 Z M 8.0057107,11.92912 c -0.3018331,0 -0.5218202,0.09218 -0.6898691,0.278866 -0.1725533,0.191729 -0.25531,0.407777 -0.25531,0.666866 0,0.259076 0.082831,0.475544 0.25531,0.667273 0.1680489,0.186706 0.388036,0.278312 0.6898691,0.278312 0.3018577,0 0.5222263,-0.09169 0.6902628,-0.278312 0.1725411,-0.191729 0.2553224,-0.408197 0.2553224,-0.667273 0,-0.259089 -0.082707,-0.475137 -0.2553224,-0.666866 C 8.527937,12.021267 8.3075684,11.92912 8.0057107,11.92912 Z"
     id="path4"
     inkscape:connector-curvature="0"
     style="fill:#ffffff;stroke-width:1.06666398" />
  <path
     d="M 8,3.837e-5 A 7.9999797,7.9999797 0 0 0 2.027e-5,8.0000181 7.9999797,7.9999797 0 0 0 0.0104369,8.3062674 7.9999797,7.9999797 0 0 1 8,0.53337035 7.9999797,7.9999797 0 0 1 15.989563,8.2271008 7.9999797,7.9999797 0 0 0 15.99998,8.0000181 7.9999797,7.9999797 0 0 0 8,3.837e-5 Z"
     id="path6"
     inkscape:connector-curvature="0"
     style="opacity:0.3;fill:#ffffff;stroke-width:1.06666398" />
  <path
     d="M 8.0000203,16.000032 A 7.9999797,7.9999797 0 0 0 16,8.000053 7.9999797,7.9999797 0 0 0 15.989547,7.6938031 7.9999797,7.9999797 0 0 1 7.999984,15.4667 7.9999797,7.9999797 0 0 1 0.01042131,7.7729698 7.9999797,7.9999797 0 0 0 0,8.000053 7.9999797,7.9999797 0 0 0 7.9999797,16.000032 Z"
     id="path8"
     inkscape:connector-curvature="0"
     style="opacity:0.2;stroke-width:1.06666398" />
</svg>
